Numix/16/status/indicator-keyboard-Pl-7.svg

<?xml version="1.0" encoding="UTF-8" standalone="no"?>
<svg
   xmlns:dc="http://purl.org/dc/elements/1.1/"
   xmlns:cc="http://creativecommons.org/ns#"
   xmlns:rdf="http://www.w3.org/1999/02/22-rdf-syntax-ns#"
   xmlns:svg="http://www.w3.org/2000/svg"
   xmlns="http://www.w3.org/2000/svg"
   xmlns:sodipodi="http://sodipodi.sourceforge.net/DTD/sodipodi-0.dtd"
   xmlns:inkscape="http://www.inkscape.org/namespaces/inkscape"
   viewBox="0 0 16 16"
   id="svg2"
   version="1.1"
   inkscape:version="0.91 r13725"
   sodipodi:docname="indicator-keyboard-Pl-7.svg">
  <metadata
     id="metadata14">
    <rdf:RDF>
      <cc:Work
         rdf:about="">
        <dc:format>image/svg+xml</dc:format>
        <dc:type
           rdf:resource="http://purl.org/dc/dcmitype/StillImage" />
      </cc:Work>
    </rdf:RDF>
  </metadata>
  <defs
     id="defs12" />
  <sodipodi:namedview
     pagecolor="#ffffff"
     bordercolor="#666666"
     borderopacity="1"
     objecttolerance="10"
     gridtolerance="10"
     guidetolerance="10"
     inkscape:pageopacity="0"
     inkscape:pageshadow="2"
     inkscape:window-width="640"
     inkscape:window-height="480"
     id="namedview10"
     showgrid="false"
     inkscape:zoom="14.75"
     inkscape:cx="8"
     inkscape:cy="8"
     inkscape:window-x="65"
     inkscape:window-y="24"
     inkscape:window-maximized="0"
     inkscape:current-layer="svg2" />
  <path
     style="fill:#ececec;fill-opacity:1"
     d="M 1.5996094 0 C 0.71320937 2.9605947e-16 0 0.71320937 0 1.5996094 L 0 14.400391 C 2.9605947e-16 15.286791 0.71320937 16 1.5996094 16 L 14.400391 16 C 15.286791 16 16 15.286791 16 14.400391 L 16 1.5996094 C 16 0.71320937 15.286791 0 14.400391 0 L 1.5996094 0 z M 9.0234375 4.1113281 L 9.0234375 9.9628906 C 9.0234375 10.106891 9.0345938 10.2225 9.0585938 10.3125 C 9.0885937 10.3965 9.1315469 10.465531 9.1855469 10.519531 C 9.2395469 10.567531 9.3085781 10.604906 9.3925781 10.628906 C 9.4825781 10.652906 9.5870313 10.673406 9.7070312 10.691406 L 9.6269531 11.177734 C 9.4289531 11.171734 9.2535156 11.143703 9.1035156 11.095703 C 8.9595156 11.053703 8.8383281 10.988438 8.7363281 10.898438 C 8.6403281 10.802438 8.5637656 10.681109 8.5097656 10.537109 C 8.4617656 10.387109 8.4375 10.202469 8.4375 9.9804688 L 8.4375 4.2207031 L 9.0234375 4.1113281 z M 4.7324219 4.8046875 C 5.6144219 4.8046875 6.271125 4.9725937 6.703125 5.3085938 C 7.135125 5.6445937 7.3515625 6.1222344 7.3515625 6.7402344 C 7.3515625 7.0942344 7.2881094 7.3964375 7.1621094 7.6484375 C 7.0361094 7.8944375 6.8570469 8.0959531 6.6230469 8.2519531 C 6.3890469 8.4019531 6.0998125 8.5139375 5.7578125 8.5859375 C 5.4218125 8.6519375 5.0412344 8.6835937 4.6152344 8.6835938 L 3.7695312 8.6835938 L 3.7695312 11.095703 L 3.1582031 11.095703 L 3.1582031 4.9765625 C 3.3742031 4.9165625 3.6260625 4.8736094 3.9140625 4.8496094 C 4.2080625 4.8196094 4.4804219 4.8046875 4.7324219 4.8046875 z M 4.7597656 5.3359375 C 4.5317656 5.3359375 4.3358281 5.3452813 4.1738281 5.3632812 C 4.0178281 5.3752813 3.8835313 5.3864375 3.7695312 5.3984375 L 3.7695312 8.1523438 L 4.5429688 8.1523438 C 4.8729687 8.1523438 5.1695938 8.1356094 5.4335938 8.0996094 C 5.7035937 8.0576094 5.9331406 7.9848125 6.1191406 7.8828125 C 6.3111406 7.7748125 6.4565937 7.6274062 6.5585938 7.4414062 C 6.6605937 7.2554063 6.7128906 7.0184687 6.7128906 6.7304688 C 6.7128906 6.4544688 6.6550156 6.226875 6.5410156 6.046875 C 6.4330156 5.866875 6.2856094 5.7250469 6.0996094 5.6230469 C 5.9196094 5.5150469 5.7125156 5.4404375 5.4785156 5.3984375 C 5.2445156 5.3564375 5.0057656 5.3359375 4.7597656 5.3359375 z M 10.378906 8.8417969 L 12.841797 8.8417969 L 12.841797 9.1816406 C 12.709197 9.3415406 12.564197 9.5551188 12.404297 9.8242188 C 12.248297 10.089419 12.099384 10.391163 11.958984 10.726562 C 11.818584 11.058062 11.695144 11.410756 11.589844 11.785156 C 11.488444 12.159556 11.427697 12.529884 11.404297 12.896484 L 11 12.896484 C 11.0234 12.572784 11.082181 12.229888 11.175781 11.867188 C 11.273281 11.504488 11.390844 11.1518 11.527344 10.8125 C 11.667744 10.4732 11.816663 10.161653 11.976562 9.8769531 C 12.140363 9.5922532 12.299072 9.3649594 12.451172 9.1933594 L 10.378906 9.1933594 L 10.378906 8.8417969 z "
     id="path4" />
</svg>

<svg xmlns="http://www.w3.org/2000/svg" viewBox="0 0 16 16">
 <path d="m 1.6 0 c -0.886 0 -1.6 0.713 -1.6 1.6 l 0 12.801 c 0 0.886 0.713 1.6 1.6 1.6 l 12.801 0 c 0.886 0 1.6 -0.713 1.6 -1.6 l 0 -12.801 c 0 -0.886 -0.713 -1.6 -1.6 -1.6 l -12.801 0 z m 7.424 4.111 l 0 5.852 c 0 0.144 0.011 0.26 0.035 0.35 c 0.03 0.084 0.073 0.153 0.127 0.207 c 0.054 0.048 0.123 0.085 0.207 0.109 c 0.09 0.024 0.194 0.044 0.314 0.063 l -0.08 0.486 c -0.198 -0.006 -0.373 -0.034 -0.523 -0.082 c -0.144 -0.042 -0.265 -0.107 -0.367 -0.197 c -0.096 -0.096 -0.173 -0.217 -0.227 -0.361 c -0.048 -0.15 -0.072 -0.335 -0.072 -0.557 l 0 -5.76 l 0.586 -0.109 z m -4.291 0.693 c 0.882 0 1.539 0.168 1.971 0.504 c 0.432 0.336 0.648 0.814 0.648 1.432 c 0 0.354 -0.063 0.656 -0.189 0.908 c -0.126 0.246 -0.305 0.448 -0.539 0.604 c -0.234 0.15 -0.523 0.262 -0.865 0.334 c -0.336 0.066 -0.717 0.098 -1.143 0.098 l -0.846 0 l 0 2.412 l -0.611 0 l 0 -6.119 c 0.216 -0.06 0.468 -0.103 0.756 -0.127 c 0.294 -0.03 0.566 -0.045 0.818 -0.045 z m 0.027 0.531 c -0.228 0 -0.424 0.009 -0.586 0.027 c -0.156 0.012 -0.29 0.023 -0.404 0.035 l 0 2.754 l 0.773 0 c 0.33 0 0.627 -0.017 0.891 -0.053 c 0.27 -0.042 0.5 -0.115 0.686 -0.217 c 0.192 -0.108 0.337 -0.255 0.439 -0.441 c 0.102 -0.186 0.154 -0.423 0.154 -0.711 c 0 -0.276 -0.058 -0.504 -0.172 -0.684 c -0.108 -0.18 -0.255 -0.322 -0.441 -0.424 c -0.18 -0.108 -0.387 -0.183 -0.621 -0.225 c -0.234 -0.042 -0.473 -0.063 -0.719 -0.063 z m 5.619 3.506 l 2.463 0 l 0 0.34 c -0.133 0.16 -0.278 0.373 -0.438 0.643 c -0.156 0.265 -0.305 0.567 -0.445 0.902 c -0.14 0.332 -0.264 0.684 -0.369 1.059 c -0.101 0.374 -0.162 0.745 -0.186 1.111 l -0.404 0 c 0.023 -0.324 0.082 -0.667 0.176 -1.029 c 0.098 -0.363 0.215 -0.715 0.352 -1.055 c 0.14 -0.339 0.289 -0.651 0.449 -0.936 c 0.164 -0.285 0.323 -0.512 0.475 -0.684 l -2.072 0 l 0 -0.352 z" style="fill:#ececec;fill-opacity:1"/>
</svg>
